X:1
T:Den Tid, du Astrid!
T:Den Tid, du Astrid!
T:Norsk Folkemelodi
T:Joh. D. Behrens
T:H. Hanson
C:Joh. D. Behrens
Z:H. Hanson
%%score [ 1 2 3 4 ]
L:1/8
Q:1/4=72
M:2/4
K:G
V:1 treble-8 nm="T1"
V:2 treble-8 nm="T2"
V:3 bass nm="B1"
V:4 bass nm="B2"
V:1
!p!"^Andantino" B2 B3/2 ^A/ |!<(! (Be) e!<)! ^d | (ef) g e |!>(! ^d2 B2!>)! |!mf! f2 f f | g2 f e | %6
w: Den Tid, du|A- * strid! saa|my- * kje helt|'ta meg,|daa du saa|bli'- leg 'ti|
w: den Tid, du|gret, _ kver- gaang|eg _ gjekk i-|fra deg,|daa du saa|gla' meg kvar|
 ^d2 e f | e4 ::!mf! !>!f2!<(! f f!<)! | g2!>(! f e!>)! | !>!e2 ^d e | B4 | B2 B3/2 ^A/ | %13
w: Fan- gje mit|laag;|daa va' eg|Byg- dens den|sæ- le- ste|Gut,|in- kje eg|
w: Laur- dags- kveld|saag:||||||
!<(! (Be) e f!<)! | (gf)!>(! e ^d | e4!>)! :| %16
w: byt- * tad me'|Prest _ el- ler|Fut.|
w: |||
V:2
!p! B2 B3/2 ^A/ |!<(! B2 B!<)! B | (e^d) e B |!>(! B2 B2!>)! |!mf! ^d2 d d | e2 B B | B2 B B | %7
w: Den Tid, du|A- strid! saa|my- * kje helt|'ta meg,|daa du saa|bli'- leg 'ti|Fan- gje mit|
w: den Tid, du|gret, kver- gaang|eg _ gjekk i-|fra deg,|daa du saa|gla' meg kvar|Laur- dags- kveld|
 B4 ::!mf! !>!^d2!<(! d d!<)! | e2!>(! ^d B!>)! | !>!c2 B B | B4 | B2 B3/2 F/ |!<(! (FG) B B!<)! | %14
w: laag;|daa va' eg|Byg- dens den|sæ- le- ste|Gut,|in- kje eg|byt- * tad me'|
w: saag:|||||||
 (Bc)!>(! B A | G4!>)! :| %16
w: Prest _ el- ler|Fut.|
w: ||
V:3
!p! G,2 G,3/2 G,/ |!<(! G,2 G,!<)! A, | B,2 B, G, |!>(! F,2 ^D,2!>)! |!mf! B,2 B, B, | B,2 A, G, | %6
w: Den Tid, du|A- strid! saa|my- kje helt|'ta meg,|daa du saa|bli'- leg 'ti|
w: den Tid, du|gret, kver- gaang|eg gjekk i-|fra deg,|daa du saa|gla' meg kvar|
 A,2 G, A, | G,4 ::!mf! !>!B,2!<(! B, B,!<)! | B,2!>(! B, B,!>)! | !>!A,2 A, G, | F,4 | %12
w: Fan- gje mit|laag;|daa va' eg|Byg- dens den|sæ- le- ste|Gut,|
w: Laur- dags- kveld|saag:|||||
 G,2 F,3/2 E,/ |!<(! (^D,B,) B, A,!<)! | (G,A,)!>(! G, B, | B,4!>)! :| %16
w: in- kje eg|byt- * tad me'|Prest _ el- ler|Fut.|
w: ||||
V:4
!p! E,2 E,3/2 E,/ |!<(! E,2 E,!<)! F, | (G,F,) E, E, |!>(! B,,2 B,,2!>)! |!mf! B,,2 B,, B,, | %5
w: Den Tid, du|A- strid! saa|my- * kje helt|'ta meg,|daa du saa|
w: den Tid, du|gret, kver- gaang|eg _ gjekk i-|fra deg,|daa du saa|
 E,2 ^D, E, | F,2 E, B,, | E,4 ::!mf! (!>!B,,B,)!<(! A, F,!<)! | E,2!>(! F, G,!>)! | !>!G,2 F, E, | %11
w: bli'- leg 'ti|Fan- gje mit|laag;|daa _ va' eg|Byg- dens den|sæ- le- ste|
w: gla' meg kvar|Laur- dags- kveld|saag:||||
 ^D,4 | E,2 ^D,3/2 ^C,/ |!<(! B,,2 G, F,!<)! | (E,A,,)!>(! B,, B,, | E,4!>)! :| %16
w: Gut,|in- kje eg|byt- tad me'|Prest _ el- ler|Fut.|
w: |||||

